X: 31362
T: Paddy O'Rafferty
R: jig
M: 6/8
K: Dmajor
dff cee|def gfe|dff cee|dfe dBA|
dff cee|def ~g3|afd cBA|dfe dBA:|
AFA Adf|gfe fdB|AFA ABc|dfe dcB|
AFA BGB|efe e2 g|f/g/af|dfe dBA:|
fAA fAA|f/g/af gfe|fAA fAA|dfe dBA|
fAA fAA|f/g/af ~g3|afd cBA|dfe dBA:|
AFA AFA|=c/B/AG FGE|D>ED DFA|dfd {f}dB|
{AB}AFA dAF|~G3 EFG|FED DFA|dfd e2 d:|
~f3 ~g3|agf gfe|~f3 ~g3|afd ede|
~f3 ~g3|afd cBA|afd cBA|dfe dBA:|

